X:1
T:Divertissement
T:Divertissement
T:Antonio Cano Curiela
T:Notasyon: Musa Çetiner
T:www.gitaregitim.net
C:Antonio Cano Curiela
Z:Notasyon: Musa Çetiner
Z:www.gitaregitim.net
%%score { ( 1 2 ) | ( 3 4 ) }
L:1/8
Q:1/4=80
M:2/4
K:C
V:1 treble-8 nm="Klasik Gitar" snm="Git."
V:2 treble-8 
V:3 tab stafflines=6 strings=E2,A2,D3,G3,B3,E4 
V:4 tab stafflines=6 strings=E2,A2,D3,G3,B3,E4 
V:1
 z !2!A B!1!c | z c BA | z B c!4!d | z !4!d cB | z A Bc | z !4!d ef | Ee E,!1!^G | A2 z2 :: %8
 z e !4!dc | z B A^G | z c BA | E,B z2 | z A Bc | z d ef | Ee E,^G | A2 z2 :| %16
V:2
 A,4 | A,4 | E,4 | E,4 | A,4 | D4 | E2 E,2 | z2 A,2 :: !2!E4 | E,4 | A,4 | E,2 E2 | A,4 | D4 | %14
 E2 E,2 | z2 A,2 :| %16
V:3
 x !3!A, !2!B,!2!C | x !2!C !2!B,!3!A, | x !2!B, !2!C!2!D | x !2!D !2!C!2!B, | x !3!A, !2!B,!2!C | %5
 x !2!D !1!E!1!F | !4!E,!1!E !6!x!3!^G, | !3!A,2 x2 :: x !1!E !2!D!2!C | x !2!B, !3!A,!3!^G, | %10
 x !2!C !2!B,!3!A, | !6!x!2!B, x2 | x !3!A, !2!B,!2!C | x !2!D !1!E!1!F | !4!E,!1!E !6!x!3!^G, | %15
 !3!A,2 x2 :| %16
V:4
 !5!A,,4 | !5!A,,4 | !6!E,,4 | !6!E,,4 | !5!A,,4 | !4!D,4 | !5!x2 !6!E,,2 | x2 !5!A,,2 :: !4!E,4 | %9
 !6!E,,4 | !5!A,,4 | !6!E,,2 !4!E,2 | !5!A,,4 | !4!D,4 | !5!x2 !6!E,,2 | x2 !5!A,,2 :| %16

